src/img/atribuicao-08.svg

<svg width="40" height="42" viewBox="0 0 40 42" fill="none" xmlns="http://www.w3.org/2000/svg">
<path d="M38.0049 23.9973H40.0003V28.0013H38.0049V23.9973Z" fill="#3B2027"/>
<path d="M3.99072 17.9978V42.0083H38.0045V34.0004H35.996V39.9998H5.99926V17.9978H3.99072Z" fill="#3B2027"/>
<path d="M35.9956 28.0015H38.0041V30.01H35.9956V28.0015Z" fill="#3B2027"/>
<path d="M34.001 22.0017H38.0049V23.9971H34.001V22.0017Z" fill="#3B2027"/>
<path d="M34.001 30.01H35.9964V32.0054H34.001V30.01Z" fill="#3B2027"/>
<path d="M34.001 26.0061H35.9964V28.0015H34.001V26.0061Z" fill="#3B2027"/>
<path d="M32.0054 32.0054H34.0008V34.0008H32.0054V32.0054Z" fill="#3B2027"/>
<path d="M32.0054 23.9973H34.0008V26.0058H32.0054V23.9973Z" fill="#3B2027"/>
<path d="M29.9966 34.0007H32.0051V36.0093H29.9966V34.0007Z" fill="#3B2027"/>
<path d="M29.9966 26.0061H32.0051V28.0015H29.9966V26.0061Z" fill="#3B2027"/>
<path d="M28.0015 32.0054H29.9969V34.0008H28.0015V32.0054Z" fill="#3B2027"/>
<path d="M28.0015 28.0015H29.9969V30.01H28.0015V28.0015Z" fill="#3B2027"/>
<path d="M25.9925 32.0054H23.9971V38.0047H29.9964V36.0093H25.9925V32.0054Z" fill="#3B2027"/>
<path d="M25.9927 30.01H28.0012V32.0054H25.9927V30.01Z" fill="#3B2027"/>
<path d="M16.0024 16.0024H29.9965V17.9978H16.0024V16.0024Z" fill="#3B2027"/>
<path d="M9.99023 23.9973H25.9929V26.0058H9.99023V23.9973Z" fill="#3B2027"/>
<path d="M9.99023 32.0054H19.9935V34.0008H9.99023V32.0054Z" fill="#3B2027"/>
<path d="M3.99072 0V1.99541H25.9927V11.9987H35.996V20.0066H38.0045V10.0033H35.996V7.99475H34.0006V5.99934H32.0052V4.00394H29.9966V1.99541H28.0012V0L3.99072 0Z" fill="#3B2027"/>
<path d="M3.99081 7.99472H1.99541V10.0032H0V11.9987H1.99541V16.0026H5.99934V11.9987H7.99475V16.0026H11.9987V11.9987H13.9941V10.0032H11.9987V7.99472H9.99015V5.99931H7.99475V4.00391H5.99934V5.99931H3.99081V7.99472Z" fill="#3B2027"/>
</svg>

<svg width="40" height="42" fill="none" xmlns="http://www.w3.org/2000/svg"><path d="M38.005 23.997H40v4.004h-1.995v-4.004zM3.99 17.998v24.01h34.014V34h-2.008v6H5.999V17.998H3.991zm32.006 10.004h2.008v2.008h-2.008v-2.009zm-1.995-6h4.004v1.995H34v-1.995z" fill="#3B2027"/><path d="M34.001 30.01h1.995v1.995h-1.995V30.01zm0-4.004h1.995v1.995h-1.995v-1.995zm-1.996 5.999h1.996v1.996h-1.996v-1.996zm0-8.008h1.996v2.009h-1.996v-2.009zM29.997 34h2.008v2.01h-2.008V34zm0-7.994h2.008v1.995h-2.008v-1.995zm-1.995 5.999h1.995v1.996h-1.995v-1.996zm0-4.003h1.995v2.008h-1.995v-2.009zm-2.01 4.003h-1.995v6h6v-1.996h-4.005v-4.004zm.001-1.995H28v1.995h-2.008V30.01zm-9.991-14.008h13.995v1.996H16.002v-1.996zM9.99 23.997h16.003v2.009H9.99v-2.009zm0 8.008h10.004v1.996H9.99v-1.996z" fill="#3B2027"/><path d="M3.99 0v1.995h22.003V12h10.003v8.008h2.008V10.003h-2.008V7.995h-1.995V5.999h-1.996V4.004h-2.008V1.995H28V0H3.991z" fill="#3B2027"/><path d="M3.99 7.995H1.996v2.008H0V12h1.995v4.004H6V12h1.996v4.004H12V12h1.995v-1.996H12V7.995H9.99V5.999H7.995V4.004H5.999v1.995H3.991v1.996z" fill="#3B2027"/></svg>
